X: 22
T:The Muckin' o' Geordie's Byre
M:6/8
L:1/8
S:AABB
R:Jig
K:D
B|"D"A>BA A>FA|d2 e f2 a|"A7"g2 e "D"f2 d|"A"e2 d "G"B>cd|!
"D"A>BA A>FA|d2 e f2 g|"D"a>fd "A"e>fe|"D"d3 "D"d2:||!
e/2f/2|"A7"g2 g g>ag|"D"f2 f f>af|"A"e2 e e>fg|"D"f>ed "G"B>cd|!
"D"A>BA A>FA|d2 e f2 g|"D"a>fd "A"e>fe|d3 d2:||
